!!!!SEGMENT: T664_Hin-w82p56hZm7-14.krn
!!!COM: Hindemith, Paul
!!!OTL: II: Turandot, Scherzo
!!!AGN: Orchestral
!!!AGN-sub: Symphonic
!!!CNT: German
!!!ODT: 1943
!!!OPR: Symphonic Metamorphosis of Themes by Carl Maria von Weber
!!!filename: T664_Hin-w82p56hZm7-14.krn
**kern	**dynam	**kern	**dynam	**kern	**dynam	**kern	**dynam	**kern	**dynam	**kern	**dynam	**kern	**dynam	**kern	**dynam
*grp:A	*	*grp:B	*	*grp:A	*	*grp:A	*	*grp:A	*	*grp:A	*	*grp:A	*	*grp:A	*
*part8	*	*part7	*	*part6	*	*part5	*	*part4	*	*part3	*	*part2	*	*part1	*
*staff8	*	*staff7	*	*staff6	*	*staff5	*	*staff4	*	*staff3	*	*staff2	*	*staff1	*
*I"Wood Block,\nSmall Cymbal,\nSmall Gong	*	*I"Triangle,\nTom-tom	*	*I"Glockenspiel	*	*I"Timpani	*	*I"Clarinet in Bb 1, 2	*	*I"Oboe 1, 2	*	*I"Flute 1, 2	*	*I"Piccolo	*
*I'block, cymb, gong	*	*I'tri, tom-tom	*	*I'glock	*	*I'timp	*	*I'cl	*	*I'ob	*	*I'fl	*	*I'picc	*
*ICidio	*	*ICidio	*	*ICidio	*	*ICidio	*	*ICww	*	*ICww	*	*ICww	*	*ICww	*
*Iwblok&Ispshc&Igong	*	*Itrngl&Itom	*	*Iglock	*	*Itimpa	*	*Iclars	*	*Ioboe	*	*Iflt	*	*Ipicco	*
*clefG2	*	*clefG2	*	*clefG2	*	*clefF4	*	*clefG2	*	*clefG2	*	*clefG2	*	*clefG2	*
*	*	*	*	*ITrd-15c-23	*	*	*	*ITrd1c2	*	*	*	*	*	*ITrd-7c-12	*
*k[]	*	*k[]	*	*k[]	*	*k[]	*	*k[b-e-]	*	*k[]	*	*k[]	*	*k[]	*
*C:	*	*C:	*	*	*	*	*	*	*	*	*	*	*	*	*
!!LO:TX:tempo:a:t=[a tempo (Lebhaft)]\n[[half]=92]
*M2/2	*	*M2/2	*	*M2/2	*	*M2/2	*	*M2/2	*	*M2/2	*	*M2/2	*	*M2/2	*
=1	=1	=1	=1	=1	=1	=1	=1	=1	=1	=1	=1	=1	=1	=1	=1
*	*	*^	*	*	*	*	*	*	*	*	*	*	*	*	*
!LO:TX:a:t=[Holzblock]	!	!	!	!	!	!	!	!	!	!	!	!	!	!	!	!
!	!LO:DY:ed=brack	!LO:TX:b:t=[Tom-tom]	!	!LO:DY:ed=brack	!	!LO:DY:ed=brack	!	!LO:DY:ed=brack	!	!	!	!	!	!	!LO:TX:t=[[quarter]=132]	!
4Ra/	f	4Rg\	4ryy	f	1fff	f	4AA	f	2r	.	2r	.	2r	.	1r	.
4r	.	4r	4ryy	.	.	.	4AA	.	.	.	.	.	.	.	.	.
*	*	*Xtuplet	*	*	*	*	*	*	*	*	*	*	*	*	*	*
4r	.	12Rg\L	4ryy	.	.	.	2r	.	4ff	mp	4ff 4ccc	mp	4aa 4fff	mp	.	.
.	.	12Rg\	.	.	.	.	.	.	.	.	.	.	.	.	.	.
.	.	12Rg\J	.	.	.	.	.	.	.	.	.	.	.	.	.	.
4Ra/	.	4Rg\	4ryy	.	.	.	.	.	4ff	.	4ff 4ccc	.	4aa 4fff	.	.	.
=2	=2	=2	=2	=2	=2	=2	=2	=2	=2	=2	=2	=2	=2	=2	=2	=2
2r	.	4Rg\	4ryy	.	1ddd	.	4F	.	1r	.	1r	.	1r	.	1r	.
.	.	4r	4ryy	.	.	.	8DL	.	.	.	.	.	.	.	.	.
.	.	.	.	.	.	.	8CJ	.	.	.	.	.	.	.	.	.
*^	*	*	*	*	*	*	*	*	*	*	*	*	*	*	*	*
!LO:TX:b:t=[Kl. Gong]	!	!	!	!	!	!	!	!	!	!	!	!	!	!	!	!	!
!LO:TX:a:t=[Kl. Becken]	!	!	!LO:TX:a:t=[Triangel]	!	!	!	!	!	!	!	!	!	!	!	!	!	!
!LO:T:lv	!	!	!	!	!	!	!	!	!	!	!	!	!	!	!	!	!
[2Rf/	4r	.	4ryy	4Ree/	.	.	.	4AA	.	.	.	.	.	.	.	.	.
.	[4Re\	.	4ryy	4Ree/	.	.	.	4AA	.	.	.	.	.	.	.	.	.
=3	=3	=3	=3	=3	=3	=3	=3	=3	=3	=3	=3	=3	=3	=3	=3	=3	=3
!	!	!	!	!	!	!	!	!	!	!	!	!	!	!LO:TX:a:t=I.	!	!	!
4r	1Re]	.	4ryy	4r	.	[1ccc	.	2r	.	4f 4ff	p	4f 4ff	p	4fff	p	1r	.
4Ra/	.	.	4ryy	4Ree/	.	.	.	.	.	4f 4ff	.	4f 4ff	.	4fff	.	.	.
!	!	!	!	!	!LO:DY:t=%s dim.	!	!	!	!LO:DY:t=%s dim.	!	!	!	!	!	!	!	!
4Ra/	.	.	4Rg\	4ryy	mf	.	.	4F	mf	2r	.	2r	.	2r	.	.	.
4r	.	.	4r	4ryy	.	.	.	8DL	.	.	.	.	.	.	.	.	.
.	.	.	.	.	.	.	.	8CJ	.	.	.	.	.	.	.	.	.
*v	*v	*	*	*	*	*	*	*	*	*	*	*	*	*	*	*	*
=4	=4	=4	=4	=4	=4	=4	=4	=4	=4	=4	=4	=4	=4	=4	=4	=4
!	!	!	!	!	!	!LO:DY:t=%s dim.	!	!	!	!	!	!	!	!	!	!
4r	.	12Rg\L	4ryy	.	2ccc]	mf	4AA	.	2r	.	2r	.	2r	.	2r	.
.	.	12Rg\	.	.	.	.	.	.	.	.	.	.	.	.	.	.
.	.	12Rg\J	.	.	.	.	.	.	.	.	.	.	.	.	.	.
!	!LO:DY:t=%s dim.	!	!	!	!	!	!	!	!	!	!	!	!	!	!	!
4Ra/	mf	4Rg\	4ryy	.	.	.	4AA	.	.	.	.	.	.	.	.	.
!	!	!	!	!	!	!	!	!	!LO:TX:a:t=I.	!	!LO:TX:a:t=I.	!	!	!	!	!
2r	.	4Rg\	4ryy	.	[2aa	.	2r	.	4ff	.	4ff	.	4ff 4fff	p	4ffff	p
.	.	4r	4ryy	.	.	.	.	.	4ff	.	4ff	.	4ff 4fff	.	4ffff	.
=5	=5	=5	=5	=5	=5	=5	=5	=5	=5	=5	=5	=5	=5	=5	=5	=5
*^	*	*	*	*	*	*	*	*	*	*	*	*	*	*	*	*
*	*^	*	*	*	*	*	*	*	*	*	*	*	*	*	*	*	*
2r	1Rf	4rA	.	4ryy	4Ree/	.	2aa]	.	4F	.	1r	.	1r	.	1r	.	1r	.
.	.	2.Re\	.	4ryy	4Ree/	.	.	.	8DL	.	.	.	.	.	.	.	.	.
.	.	.	.	.	.	.	.	.	8CJ	.	.	.	.	.	.	.	.	.
4r	.	.	.	4ryy	4r	.	[2fff	.	4AA	.	.	.	.	.	.	.	.	.
4Ra/	.	.	.	4ryy	4Ree/	.	.	.	4AA	.	.	.	.	.	.	.	.	.
*v	*v	*v	*	*	*	*	*	*	*	*	*	*	*	*	*	*	*	*
=6	=6	=6	=6	=6	=6	=6	=6	=6	=6	=6	=6	=6	=6	=6	=6	=6
4Ra/	.	4Rg\	4ryy	.	2fff]	.	1r	.	1r	.	1r	.	4ff 4fff	.	4ffff	.
4r	.	4r	4ryy	.	.	.	.	.	.	.	.	.	4ff 4fff	.	4ffff	.
4r	.	12Rg\L	4ryy	.	[2ddd	.	.	.	.	.	.	.	2r	.	2r	.
.	.	12Rg\	.	.	.	.	.	.	.	.	.	.	.	.	.	.
.	.	12Rg\J	.	.	.	.	.	.	.	.	.	.	.	.	.	.
4Ra/	.	4Rg\	4ryy	.	.	.	.	.	.	.	.	.	.	.	.	.
=7	=7	=7	=7	=7	=7	=7	=7	=7	=7	=7	=7	=7	=7	=7	=7	=7
!	!	!	!	!	!	!	!	!	!	!	!	!	!LO:TX:a:t=I.	!	!	!
2r	.	4Rg\	4ryy	.	2ddd]	.	1r	.	1r	.	1r	.	4fff	pp	4ffff	pp
.	.	4r	4ryy	.	.	.	.	.	.	.	.	.	4fff	.	4ffff	.
*^	*	*	*	*	*	*	*	*	*	*	*	*	*	*	*	*
!LO:T:lv	!	!	!	!	!	!	!	!	!	!	!	!	!	!	!	!	!
[2Rf/	4r	.	4ryy	4Ree/	.	[2ccc	.	.	.	.	.	.	.	2r	.	2r	.
.	[4Re\	.	4ryy	4Ree/	.	.	.	.	.	.	.	.	.	.	.	.	.
=8	=8	=8	=8	=8	=8	=8	=8	=8	=8	=8	=8	=8	=8	=8	=8	=8	=8
4r	1Re]	.	4ryy	4r	.	2ccc]	.	1r	.	1r	.	1r	.	1r	.	4ffff	.
4Ra/	.	.	4ryy	4Ree/	.	.	.	.	.	.	.	.	.	.	.	4ffff	.
4Ra/	.	.	4Rg\	4ryy	.	[2aa	.	.	.	.	.	.	.	.	.	2r	.
4r	.	.	4r	4ryy	.	.	.	.	.	.	.	.	.	.	.	.	.
*v	*v	*	*v	*v	*	*	*	*	*	*	*	*	*	*	*	*	*
=	=	=	=	=	=	=	=	=	=	=	=	=	=	=	=
*-	*-	*-	*-	*-	*-	*-	*-	*-	*-	*-	*-	*-	*-	*-	*-
!!!system-decoration: [(s1,s2,s3,s4)]s5[(s6,s7,s8)]
!!!EED2: Rafael Laurindo
!!!EEV2: 2022/03/03
!!!EED3: Bryan Bell
!!!EEV3: 2023/06/09
!!!EEV4: 2023/06/13
!!!Suter_Work_ID: Hin-82
!!!Suter_Example_Number: 664
!!!Suter_Example_ID: Hin-82/56/[Z]7-14
!!!Premiere_Location: New York,United States
!!!Other_Tsigs: none
!!!Full_Unit_Duration: 7:22
!!!First_Publication_Year: 1945
!!!First_Public_Performance_Year: 1944
!!!Example_Total_Measures: 8
!!!Example_Timestamp_Duration: 11
!!!Example_Start_Tsig_Type: simple duple
!!!Example_Start_Tsig_Mean_Beat_Rate: 92
!!!Example_Start_Tsig_Beat_Rate: 92
!!!Example_Start_Tsig_Beat: half
!!!Example_Start_Tsig: 2/2
!!!Example_Start_Timestamp: 6:53
!!!Example_Start_Tempo_Expression: [a tempo (Lebhaft)]
!!!Example_Start_Notated_Beat_Rate: [92]
!!!Example_Start_Notated_Beat: [half]
!!!Example_Start_Measure: 388
!!!Example_Metadata_Validated: Y
!!!Example_End_Timestamp: 7:04
!!!Example_End_Measure: 395
!!!Example_Dataset: T
!!!Editorial_Comments: Example Start Notated Beat and Example Start Notated Beat Rate [half=92] based on most recent notated beat rate (SWFU, m. 28). Example Start Tempo Expression [a tempo (Lebhaft)] based on most recent notated tempo expressions (SWFU, m. 380 and m. 28).
!!!Death_Place: Frankfurt,Germany
!!!Death_Date: 28-Dec-1963
!!!Changing_Tsig: no
!!!Birth_Place: Hanau,Germany
!!!Birth_Date: 16-Nov-1895
!!!Audio_Example_Quarter_Note_Tempo:
!!!Audio_Example_Duration:
